X: 10522
C: By James Hill
C: Arranged by W. B. Laybourn
T: THE PEAR TREE
B: K\"ohler's Violin Repository, v.1, 1885 p.52 #2
F: http://www.archive.org/details/klersviolinrepos01edin
Z: 2011 John Chambers <jc:trillian.mit.edu>
M: C|
L: 1/8
K: F
uC2 |\
F(Ac)(B A)(cf)(a | g)beg afcB | AfcA GdBG | EFGE C2C2 |
F(Ac)(B A)(cf)(a | g)beg afcB | AfcA GdBE | G2F2 [F2A,2] :: (ufg) |
a(^gaf) cfAf | dfcf dfcf | a(^gaf) cdef | {g}=g^fga g2(=fg) |
a(^gaf) cfAf | dfcf dfcf | (de)fd (ef)ge | [f2A2][a2c2] [f2A2] :|

%%sep 2 1 500

